icons/zoom-to-object-24.svg

<svg xmlns="http://www.w3.org/2000/svg" viewBox="0 0 24 24"><title>zoom-to-object-24</title><g id="icons"><path d="M12,9a3,3,0,1,0,3,3A2.99976,2.99976,0,0,0,12,9Zm0,5a2,2,0,1,1,2-2A2.00222,2.00222,0,0,1,12,14ZM7,2H8V8H2V7H6.29309L.64642,1.35358,1.35358.64642,7,6.29266ZM17.70691,17l5.64667,5.64642-.70716.7071L17,17.70728V22H16V16h6v1ZM22.64642.64642l.70716.70716L17.70691,7H22V8H16V2h1V6.29266ZM2,16H8v6H7V17.70728L1.35358,23.35352l-.70716-.7071L6.29309,17H2Z"/></g></svg>

<svg xmlns="http://www.w3.org/2000/svg" viewBox="0 0 24 24"><path d="M12 9a3 3 0 103 3 3 3 0 00-3-3zm0 5a2 2 0 112-2 2.002 2.002 0 01-2 2zM7 2h1v6H2V7h4.293L.646 1.354l.708-.708L7 6.293zm10.707 15l5.647 5.646-.708.708L17 17.707V22h-1v-6h6v1zM22.647.646l.707.708L17.707 7H22v1h-6V2h1v4.293zM2 16h6v6H7v-4.293l-5.646 5.647-.708-.708L6.293 17H2z"/></svg>
